!!!COM: Bach, Johann Sebastian
!!!OPR: Joh. Seb. Bachs vierstimmige Choralgesänge
!!!XEN: Four-part Chorales
!!!OTL: Chorale 166. Von Gott will ich nicht lassen
!!!SCT: BWV 419
!!!SCA: Thematisch-systematisches Verzeichnis der musikalischen Werke Johann Sebastian Bach: Bach-Werke-Verzeichnis (Schmieder)
!!!YOR: Bach Gesellschaft Edition xxxix
!!!ENC: Steven Rasmussen
!!!CDT: 1685/3//-1750/7/28/
!!!OCY: Deutschland
!!!YEC: Copyright (c) 1994, 2000 Center for Computer Assisted Research in the Humanities
!!!YEM: Rights to all derivative editions reserved
!!!YEN: United States of America
**kern	**kern	**kern	**kern	**silbe
*I:[BASSO]	*I:[TENORE]	*I:[ALTO]	*I:[SOPRANO]	*I:[SOPRANO]
*>[A,A,B]	*>[A,A,B]	*>[A,A,B]	*>[A,A,B]	*
*>A	*>A	*>A	*>A	*
*clefF4	*clefGv2	*clefG2	*clefG2	*
*k[]	*k[]	*k[]	*k[]	*
*a:	*a:	*a:	*a:	*
*M4/4	*M4/4	*M4/4	*M4/4	*
8AL	4c	4e	4a	Vonführt
8GJ	.	.	.	.
=1	=1	=1	=1	=1
4F	4c	4f	4a	Gottmich
8EL	4d	4f	4b	willauf
8DJ	.	.	.	.
4E	4G	4g	4cc	ichrech-
4F#	4d	4a	4dd	nicht-ter
=2	=2	=2	=2	=2
4G	8dL	4g	4.b	las-Stra-
.	8eJ	.	.	.
4D#	4f#	4f#	.	.
.	.	.	8a	.
4E;	4B;	4e;	4g;	-sen,-ssen,
8EL	4B	4e	4g	dennda
8DnJ	.	.	.	.
=3	=3	=3	=3	=3
4C	4A	4e	4a	erich
8FL	4A	8dL	4a	lässtsonst
8EJ	.	8eJ	.	.
4D	4A	4f	4b	nichtir-
4E	4G#	8eL	4b	von-ret
.	.	8dJ	.	.
=4	=4	=4	=4	=4
2.A;	2.A;	8dL	2.e;	mir,sehr.
.	.	16cL	.	.
.	.	16BJJ	.	.
.	.	2c;	.	.
=:|!	=:|!	=:|!	=:|!	=:|!
*>B	*>B	*>B	*>B	*
4C	8GL	8eL	4ee	Er
.	8AJ	8f#J	.	.
=5	=5	=5	=5	=5
8BBL	4B	4g#	4dd	reicht
8BJ	.	.	.	.
4A	8eL	8aL	4cc	mir
.	8cJ	8gnJ	.	.
4G#	8dL	4f	4b	sei-
.	8BJ	.	.	.
4A	4c	8eL	4a	-ne
.	.	8f#J	.	.
=6	=6	=6	=6	=6
2.E;	2.B;	2.g#;	2.b;	Hand,
4E	4e	4g#	4b	den
=7	=7	=7	=7	=7
4A	4e	4a	4cc	A-
8GL	4f	4b	4dd	-bend
8FJ	.	.	.	.
4c	4g	8ccL	4ee	und
.	.	8bJ	.	.
4E	8cL	8aL	4ee	den
.	8BJ	8gJ	.	.
=8	=8	=8	=8	=8
4F#	4A	8aL	2dd	Mor-
.	.	8gJ	.	.
8EL	4d	4f#	.	.
8DJ	.	.	.	.
4G;	4d;	4g;	4b;	-gen
4G#	4B	4fn	4dd	tut
=9	=9	=9	=9	=9
4A	8AL	(8e	4cc	er
.	8eJ	4a)	.	.
4E	4e	.	4b	mich
.	.	8g	.	.
4.F	8eL	8gL	4a	wohl
.	16dL	16fL	.	.
.	16c#JJ	16eJJ	.	.
.	8dL	4f	4a	ver-
8E	8cnJ	.	.	.
=10	=10	=10	=10	=10
8D#L	8BL	8f#L	4.b	-sor-
8BB	8A	8d#	.	.
8C#	8G	8e	.	.
8D#J	8F#J	8f#J	8a	.
4E;	4E;	4B;	4g;	-gen,
4Dn	4Fn	4B	4f	sei
=11	=11	=11	=11	=11
4C	4G	4c	4e	wo
4F	4A	8cL	8aL	ich
.	.	8dJ	8bJ	.
8EL	4A	4e	4cc	woll'
8DJ	.	.	.	.
4E	4G#	8eL	4b	im
.	.	8dJ	.	.
=12	=12	=12	=12	=12
2.AA;	2.A;	2.c;	2.a;	Land.
==|!	==|!	==|!	==|!	==|!
*-	*-	*-	*-	*-
!!!RWG: Key is interpreted using the Humdrum key tool.
!!!URL-pdf: https://s9.imslp.org/files/imglnks/usimg/7/7a/IMSLP04155-Bach_-_BGA_253-438.pdf#page=91 	Bach-Gesellschaft Ausgabe, Band 39 (pp.175-276) Leipzig: Breitkopf und Härtel, 1892. Plate B.W. XXXIX.
!!!END: 1994/08/03
!!!EMD: Converted from MuseData to Humdrum Dec 19, 2000, by Andreas Kornstaedt using muse2kern.
!!!EED: Craig Stuart Sapp
!!!EEV: 2024/03/31
!!!filter-keyboard: satb2gs
!!!title: @{OTL} (@{SCT})
